X: 20578
T: John O'Dwyer Of The Glen
R: hornpipe
M: 4/4
K: Dmajor
a|:a>g (3fga g>e f>e|d>c A>G A2 A>B|c>d e>c A2 (3AGF|1 (3GFG A>B A3 a:|2 (3GFG A>B A3 A||
|:(3BcB c>B c>d e>f|g>f e>c d2 b2|a>g e>c d>f e>c|d>B A>B G3 b|
a>g (3fga g>e f>e|d>c A>G A2 A>B|c>d e>c A2 (3AGF|1 (3GFG A>A A3 A:|2 (3GFG A>A A3||

